X: 19
T: I am standing till daylight
N: Derived from ojibwa19.krn
C: Chippewa Songs ~ 1910
O: Red Wing, Minnesota, U.S.A
N: Chippewa Music by Frances Densmore, 1910
Z: transcribed to **kern format by Paul von Hippel and Daniel T. Shanahan
L: 1/8
M: 2/4
Q: 1/4=108
K: D clef=treble
%%linebreak <none>
F3F | 
F2E D | 
F F E E {/F} | 
D B,D2 | 
B,> B,B,2- | 
B,2F, z | 
E> DC2{/E} | 
D B,D2[K:clef=bass] | 
B,2>C2 B, A, | 
F,2>A,2 F, E, | 
D,6 | 
D,4z D | 
B,2>C2 B, A, | 
F,3E,/ D,/ E, D, | 
B,,> B,,B,,4- | 
B,,6[K:clef=treble] | 
A A A AF2 | 
F2D2 | 
F D-D2 | 
D2B,2 | 
D B,B,2 | 
B,3B, | 
B,4 |]  



